X: 503
T: A.J. And Jeanette Beaton's
R: reel
M: 4/4
K: Amajor
a|cAeA cdec|Bdgd BGGg|cAeA cdec|BdgB A2 A:|
g|aecB Acec|Bdgd BGGg|aecB Acec|cdgB A2 Ag
aecB Acec|Bcgc BGGB|AcBd cedf|ecdB A2 A|

